X:1
T:Nocturne
T:Nocturne
T:Op. 48 No. 1 in C Minor
T:Frédéric Chopin
C:Frédéric Chopin
%%score { ( 1 3 4 ) | 2 }
L:1/8
Q:1/4=55
M:4/4
K:Eb
V:1 treble nm="鋼琴" snm="Pno."
V:3 treble 
V:4 treble 
V:2 bass 
V:1
"^Lento""_mezza voce"!p! z2 g2 z2 a2 | z (g2 d- d/e/f/e/ d/e/f/g/ | c2 c>c d2 c>A | %3
 G2-"^" G/{_B}A/G/D/ E/C/) z z2 | z2 g2 z2 (a2- | a g2 d- d/e/f/{ef}e/ d/e/f/g/ | %6
 dD- D/G/c/d/ e7/2 ^F/ | (^F3- F/4G/4B/4=A/4) G2) z2 | z2!>(! (_A2- A!>)!!pp!_dfb | %9
 (7:3:5(a3- (a)_GAe) (3:2:6a/"^"_g/[Q:1/4=25](4:1:4f/ (F/A/_d/)[Q:1/4=55]"^.25" f2) z2 | %10
!p!!>(! z2 (G2{A_B}!>)!!pp!!<(! A/G/=B/c/ d/e/c'/a/!<)! |!p! g2- (6:4:6g/^c/"^"d/g/f/e/ e2) z2 | %12
 z2!>(! (=B2-!>)!!pp! Bcde) | z2!p!!>(! (d2-!>)!!pp! defg | %14
!p! gfac d[Q:1/4=42](e{efede}[Q:1/4=55]"^.25"g)f | d4) z4 | z2 g2 z2 a2 | %17
 z (g2 d- d/e/f/{ef}e/ d/e/f/g/ |{/g} c4) z2 (f2{x} |{/=B} e3 d-!<(! d/c/d/{cd}c/ =B/c/d/e/!<)! | %20
!mf! .G2) (!>!c'2-!>(! c'/=b/_b/=a/!>)!!p! _a/f/A/_d/- | %21
!<(! [=Ed]/"^"c/{_e}_d/c/ ^d/=e/a/g/ F/c/f/g/ b/a/c/=d/ | %22
 _e2) z!<)!!f! (3(c/"^"d/c/"^ten." !>!G2) z (3(G/"_"A/G/ | %23
"^ten."[Q:1/4=50] !>!C8-)[Q:1/4=46][Q:1/4=38][Q:1/4=22] || %24
[K:C][Q:1/4=50]"^Poco più lento" ([CE]4 D2 E>F | %25
 [CE]2)[I:staff +1] [E,G,]2 [E,C]2[I:staff -1] ([CE]2 | %26
 [CG]4 [CE]2!<(![I:staff +1]{/E} [E,A,D]>[E,A,-C-]!<)! | %27
!mf!!>(! [D,^F,A,CD]4!>)!!p! [D,G,B,D]2!<(![I:staff -1] [^D=FG]2!<)! | %28
 [EGe]4!p! [=DG=d]2 [EGe][FGBf]) | ([EGce]2 [G,CEG]2 !arpeggio![CEAc]2 !arpeggio![EGBe]2 | %30
 !arpeggio![EGceg]4 [E^GBe]2 [CDAd])z/([B,F=G]/ |{/B,-} [B,FGd]4 !arpeggio![CEc]4) | %32
 ([Aca]4 [Gcg]2 [GAca]2) | [^FAd^f]2 [CDAd]>[D^Ad] [DBd]2 [DFd]2 | %34
 !arpeggio![Bdb]4 [Ada]2 [AB^db]2 | !arpeggio![^GBe^g]4 [=GBe=g]2[Q:1/4=40] [FGg]2 | %36
[Q:1/4=50]!pp! (!arpeggio![Eceg]4 [FGBdg]2 [FGBeg][Q:1/4=40][FGBfg] | %37
[Q:1/4=50] [Eceg]2)!<(! ([G,CEG]2"_cresc." [CEAc]2[Q:1/4=45] [EGBe]2!<)! | %38
[Q:1/4=50]!mf! [Gceg])!p![Q:1/4=68]!<(! (3(!>![^F,^F]/"^"[G,G]/[G,G]/ (3[G,G]/!<)!"^"!mf!!>(![_A,_A]/[A,A]/ (3[A,A]/"^"[G,G]/!>)!!p![G,G]/)!mf![Q:1/4=50] [EGe]2[Q:1/4=40] [DGd]!p![Q:1/4=50][G,B,=FG] | %39
[Q:1/4=40] !>![DFGd][Q:1/4=68]"_cresc." (3([^F,^F]/[G,G]/[G,G]/ (3[^G,^G]/[A,A]/[A,A]/ (3[^A,^A]/[B,B]/[B,B]/!mf![Q:1/4=50] !>![CEc]4 | %40
!f![Q:1/4=40] [=Ac=a])!mf![Q:1/4=68]"_cresc." (3([B,B]/[Cc]/[Cc]/ (3[Cc]/[^C^c]/[Cc]/ (3[Cc]/[Dd]/[_E_e]/!f![Q:1/4=50] !>![G=c_eg]!mf![Q:1/4=68]"_cresc." (3[=Cc]/[^C^c]/[Cc]/ (3[Cc]/[Dd]/[Dd]/ (3[Dd]/[_E_e]/!f![Q:1/4=50]!>![GA=ca]/ | %41
 !>![^FAd^f][Q:1/4=68]!mf!"_cresc." (3[^C^c]/[Dd]/[Dd]/ (3[Dd]/[^D^d]/[Dd]/ (3[Dd]/[Ee]/[Ee]/ (3[Ee]/[=F=f]/[Ff]/ (3[Ff]/[^F^f]/[Q:1/4=64][Ff]/[Q:1/4=60] (3[Ff]/[Q:1/4=56][Gg]/[Q:1/4=52][^G^g]/[Q:1/4=48] (3[Gg]/[Q:1/4=44][Aa]/[Q:1/4=40][^A^a]/ | %42
!f! !>![B=db])!mf![Q:1/4=68]"_cresc." (3([^C^c]/[Dd]/[Dd]/ (3[Dd]/[^D^d]/[Dd]/ (3[Dd]/[Ee]/[=F=f]/!f![Q:1/4=50] !>![AB=da])!mf![Q:1/4=68]"_cresc." (3([=Dd]/[^D^d]/[Dd]/ (3[Dd]/[Ee]/[Ee]/ (3[Ee]/[Q:1/4=50][Ff]/!f!!>![AB^db]/) | %43
 !>!.[^GBe^g]!mf![Q:1/4=68]"_cresc." (3([^D^d]/[Ee]/[Ee]/ (3[Ee]/[Ff]/[Ff]/ (3[Ff]/[^F^f]/[Ff]/ (3[Ff]/[=G=g]/[Gg]/[Q:1/4=64] (3[Gg]/[G=fg]/[Gfg]/[Q:1/4=60] (3[Gfg]/[Gfg]/[Gfg]/[Q:1/4=56] (3[GBfg]/[GBfg]/[Q:1/4=42][GBfg]/) | %44
!ff![Q:1/4=40]!>(! [ege'][I:staff +1]({^F,G,)}!>)![Q:1/4=50]!f! TG,3({F,G,)}[Q:1/4=30]!<(![I:staff -1] ([ege']"_rtien."[Q:1/4=40][dgd'][Q:1/4=36][ege'][Q:1/4=32][fgbf']!<)! | %45
[Q:1/4=12]!ff! (3!>![egc'e']/)[Q:1/4=36]!8va(! [c'c'']/[d'd'']/[Q:1/4=42] (3!>![c'c'']/[gg']/[aa']/[Q:1/4=50] (3!>![gg']/[ee']/[ff']/!8va)![Q:1/4=60] (3!>![ee']/[cc']/[dd']/[Q:1/4=68] (3!>![cc']/[Gg]/[Aa]/ (3!>![Gg]/[Ee]/[Ff]/ (3!>![Ee]/[Cc]/[Dd]/ (3!>![Cc]/!>![A,A]/!>![E,E]/ | %46
[Q:1/4=24] (3!>![G,CEG]/!ff![Q:1/4=36] [_e_e']/[dd']/[Q:1/4=42] (3[^c^c']/[=c=c']/[Bb]/[Q:1/4=50] (3[_B_b]/[Aa]/[^G^g]/[Q:1/4=60] (3[=G=g]/[^F^f]/[=F=f]/[Q:1/4=56] (!>![=e^g=e']2 !>![dfd']!>![FGd=g])[Q:1/4=50] | %47
[Q:1/4=40]"_riten." !>![dfgbd'][Q:1/4=36]!8va(! (3[e'e'']/[Q:1/4=39][d'd'']/[Q:1/4=42][aa']/ (3[gg']/[ee']/[dd']/!8va)! (3[Aa]/[Gg]/[G,B,FG]/ !>![CEc]2[Q:1/4=44] z2[Q:1/4=42][Q:1/4=46][Q:1/4=48] || %48
[K:Eb][Q:1/4=96]"^Doppio movimento"!pp! z2 !^!g2 z2 !^!a2 | %49
 (6:4:6[FGd][FGd][FGd] [FGd][FGd][FG][Q:1/4=80] [EGd]/.!^![Gce]/.!^![Gcf]/.!^![Gce]/ .!^![Gcd]/.!^![Gce]/.!^![Gcf]/.!^![Gcg]/ | %50
[Q:1/4=96] (!^!c2 (3!^!c3/2x[Q:1/4=74]!^![EAc]/[Q:1/4=96] !^!d2 (3:2:4!^!c-x[Q:1/4=74]c/!^![CDA]/ | %51
[Q:1/4=96] !^!G2[Q:1/4=80]!<(! !^![=B,DFG]/{/_B}!^![B,DFA]/!^![B,DFG]/!^![B,D]/!mp! (3:2:4!^!E/!<)!!>(!!^!C/)[Q:1/4=96][I:staff +1] E,E, (3E,E,E,!>)! | %52
!pp![I:staff -1] z2 !^!g2 z2 !^!a2- | %53
 (6:4:6[ABd][ABd][ABd] [Ad][Ad][Ad][Q:1/4=80] [Gcf]/.!^![Gce]/.!^![Gcf]/.!^![Gce]/ .!^![Gcd]/.!^![Gce]/.!^![G=Acf]/.!^![GAceg]/ | %54
[Q:1/4=96]!<(! (3(!^![Bd]G!>!D-[Q:1/4=80] D/!^![DG]/!^![DGc]/!^![DGd]/!<)![Q:1/4=96]!mp! !^!e2- e!^!^F) | %55
!>(! (3:2:2!^!^F2 !^!G-!>)!!p! G4 !>!G2- | (=G2 !^!A2- (6:4:6Ax!^!_d!^!fx!^!_b | %57
!mf!!>(! !^!a2- (3a2[Q:1/4=74] !^!_g/!^![_GAf]/)[Q:1/4=96] !^!f4-!>)! | %58
!p! f2 !>!G2[Q:1/4=80]!<(! .!^![EA]/.!^![EG]/.!^![EG=B]/.!^![EGc]/ .!^![EGcd]/.!^![Gce]/.!^![cec']/.!^![cea]/!<)! | %59
[Q:1/4=96]!mf! !>!g2-[Q:1/4=70] (6:4:6g/.!^!^c/.!^!d/.!^!g/.!^!f/.!^!e/[Q:1/4=96]!>(! !>!e x x2!>)! | %60
!p! z2 (!>!=B2-!<(! (3Bx!^!c(3!^!dx!^!e)!<)! | z2 (!>!d2-!<(! (3dx!^!e(3!^!fx!^!g)!<)! | %62
!>(! (3!^!gx!>)!!p!!^!f(3!^!ax!^!c (3!^!dx!^!e[Q:1/4=64] (7:4:7!^![Ace]/!^![Acf]/!^![Ace]/"^"!^![Acd]/!^![Ace]/!^![Aceg]/!^![Acef]/ | %63
[Q:1/4=96]"_cresc." !>!d8 | z2 (!^!g2 z2 !^!a2 | %65
!mf!!>(! (6:4:5z x !^!g2 x !^!f-!>)![Q:1/4=80]!p!!<(! .!^![GBdf]/.!^![GBe]/.!^![GBf]/.!^![GBe]/ .!^![GBd]/.!^![GBe]/.!^![GBf]/.!^![GBg]/!<)! | %66
[Q:1/4=40]!<(!{/[Gcg]} !^!c2)[Q:1/4=96] (3(!^!cx!^!c !^!c2 (3!^!fx!^!e!<)! | %67
!mf! !^!e2-!>(! (3ex!^!d-!>)![Q:1/4=80]!p!!<(! [EAd]/.!^![EAc]/.!^![EAd]/.!^![EAc]/ .!^![EA=B]/.!^![EAc]/.!^![EAd]/.!^![EAe]/!<)! | %68
[Q:1/4=96] !^!G2)!f! (!>!c'2[Q:1/4=80] [cdc']/[cd=b]/[cd_b]/[cd=a]/ [cd_a]/[Acf]/[Fc]/[FAcd]/ | %69
 [=EBc=e]/[FBcf]/[EBce]/[DBcd]/ [EBce]/[Bcf]/[Bcea]/[Bceg]/ [Fc]/[Fce]/[Fcf]/[cg]/ [cdb]/[cda]/[Fc]/[Fcd]/ | %70
[Q:1/4=96]!>(! !^!_e3)!>)![Q:1/4=90] x[Q:1/4=30][Q:1/4=84]"^ten."!>(! !^!G3!>)![Q:1/4=78] x[Q:1/4=20][Q:1/4=12] | %71
"^ten."!ff![Q:1/4=74] !>!C4-!p!!<(! (C/_D/F/A/ _d/=e/f/a/!<)![Q:1/4=68][Q:1/4=62][Q:1/4=56][Q:1/4=50][Q:1/4=44] | %72
!mf! (!>!=B,4-) B,/A/G/^F/ =F/G,/F/E/ | %73
[Q:1/4=42]"_dim. e rall." !>!C8-)[Q:1/4=40][Q:1/4=38][Q:1/4=36] | %74
[Q:1/4=34] (C/G,/[Q:1/4=33]C/D/[Q:1/4=32] E/^F/[Q:1/4=31]A/G/[Q:1/4=30] =B/d/[Q:1/4=29]c/e/[Q:1/4=28] ^f/g/[Q:1/4=20]{/_b}a/[Q:1/4=18]g/ | %75
[Q:1/4=36] c'2) z2!pp! [CE]2[Q:1/4=32] [CE]2 |[Q:1/4=28] !fermata![CE]8 |] %77
V:2
!ped! .[C,,C,]2 .[G,EG]2!ped-up!!ped! .[C,,C,]2 .[A,EA]2!ped-up! | %1
!ped! .[=B,,,=B,,]2 .[G,DFG]2!ped-up!!ped! .[C,,C,]2 .[G,CEG]2!ped-up! | %2
!ped! .[A,,,A,,]2 .[CEA]2!ped-up!!ped! .[F,,,F,,]2 .[F,CD]2!ped-up! | %3
!ped! .[G,,,G,,]2 .[F,=B,]2!ped-up!!ped! .[E,,,E,,]2 .[E,G,]2!ped-up! | %4
!ped! .[E,,,E,,]2 .[G,_B,EG]2!ped-up!!ped! .[A,,,A,,]2 .[F,CE]2!ped-up! | %5
!ped! .[B,,,B,,]2 .[B,DA] z/!ped-up! [=B,,,=B,,]/!ped! .[C,,C,]2 .[=A,EG]2!ped-up! | %6
!ped! .[D,,D,]2 .[B,G]2!ped-up!!ped! .[D,,,D,,]2 .[=A,C]2!ped-up! | %7
!ped! .[G,,,G,,]2 .[D,B,D] z/!ped-up! (D,,/!ped! .[G,,,G,,]2) .[D,B,D]2!ped-up! | %8
!ped! .[_G,,,_G,,]2 .[_G,A,CE]2!ped-up!!ped! .[F,,,F,,]2 .[F,A,_DF]2!ped-up! | %9
!ped! .[C,,,C,,]2 .[E,A,E]2!ped-up!!ped! .[_D,,,_D,,]2 .[F,A,_D] z/ .[C,,C,]/!ped-up! | %10
!ped! .[=B,,,=B,,]2 .[G,=DF]2!ped-up!!ped! .[C,,C,]2 .[G,CG]2!ped-up! | %11
!ped! .[D,,D,]2 .[G,=B,FG]2!ped-up!!ped! .[E,,E,]2 .[G,=CG] z/ .[E,,E,]/!ped-up! | %12
!ped! .[F,,F,]2 .[A,DA]2!ped-up!!ped! .[E,,E,]2 .[G,CG] z/ .[C,,C,]/!ped-up! | %13
!ped! .[=B,,,=B,,]2 .[G,DFG]2!ped-up!!ped! .[C,,C,]2 .[G,CEG] z/ .C,,/!ped-up! | %14
!ped! .[F,,,F,,]2 !arpeggio!.[F,CA]2!ped-up!!ped! .[A,,,A,,]2 !arpeggio!.[F,CA]2!ped-up! | %15
!ped! .[B,,,B,,]2 !arpeggio!.[F,B,DA] z/!ped-up!!ped! ([B,,,B,,]/ [=B,,,=B,,]2) .[G,DFG] z/ [G,,,G,,]/!ped-up! | %16
!ped! .[C,,C,]2[I:staff -1] .[C=E_B]2!ped-up!!ped![I:staff +1] .[F,,,F,,]2[I:staff -1] .[C_EA]2!ped-up! | %17
!ped![I:staff +1] .[B,,,B,,]2 !arpeggio!.[F,B,DA]2!ped-up!!ped! .[E,,E,]2 .[G,B,DG]2!ped-up! | %18
!ped! .[A,,,A,,]2 .[A,CG]2!ped-up!!ped! .[D,,D,]2 .[A,CF]2!ped-up! | %19
!ped! .[G,,,G,,]2 .[G,=B,F]2!ped-up!!ped! .[A,,,A,,]2 .[E,A,E]2!ped-up! | %20
!ped! .[E,,,E,,]2 .[E,G,C]2!ped-up!!ped! .[F,,,F,,]2 .[_D,A,_D]2!ped-up! | %21
!ped! .[G,,,G,,]2 .[=E,B,C]2!ped-up!!ped! .[A,,,A,,]2 .[F,C]2!ped-up! | %22
!ped! !>!.[G,,,G,,]2 .[E,G,C]2!ped-up!!ped! !>!.[G,,,G,,]2 .[D,G,=B,]2!ped-up! | !>![C,,,C,,-]8 || %24
[K:C]!ped! [C,,C,]4!ped-up!!ped! [G,,,G,,]2 G,,>!ped-up!G,, | %25
!ped! [C,,C,]2 [C,,C,]2 [C,,G,,C,]2 [C,,C,]2 | %26
 [C,,G,,E,]4!ped-up!!ped! [A,,E,]2 [A,,,A,,]>!ped-up![A,,,A,,-] | %27
!ped! [D,,A,,]4 [G,,,G,,]2!ped-up! [G,,=F,]2 | %28
!ped! !arpeggio![C,,G,,C,G,]4!ped-up!!ped! [C,,G,,F,G,]2!ped-up!!ped! [C,,G,,C,G,]!ped-up!!ped![C,,G,,D,G,]!ped-up! | %29
!ped! !arpeggio![C,,G,,C,G,]2 !arpeggio![C,,G,,E,]2!ped-up!!ped! !arpeggio![A,,E,A,]2 !arpeggio![E,,E,B,]2!ped-up! | %30
!ped! !arpeggio![C,,G,,C,E,G,C]4!ped-up!!ped! [E,,B,,^G,]2 [F,,D,A,]z/!ped-up!!ped![=G,,D,=G,]/ | %31
!>(! [G,,-D,G,]2 !>![G,,,G,,]2!ped-up!!ped! !arpeggio![C,,G,,C,G,]4!>)!!ped-up! | %32
!ped! !arpeggio![F,,C,F,C]4!ped-up!!ped! [E,,C,G,]2!ped-up!!ped! [_E,,C,A,]2!ped-up! | %33
!ped! !arpeggio![D,,A,,D,A,]2 [^F,,D,A,]>[F,,D,^A,]!ped-up!!ped! [G,,D,B,]2!ped-up!!ped! [=A,,D,C]2!ped-up! | %34
!ped! !arpeggio![G,,D,G,D]4 [^F,,D,A,]2!ped-up! [=F,,B,,^D,B,]2 | %35
!ped! !arpeggio![E,,B,,E,B,]4!ped-up!!ped! [E,,B,,E,B,]2!ped-up!!ped! [G,,=D,B,]2!ped-up! | %36
!ped! !arpeggio![C,,G,,C,G,]4!ped-up! [C,,G,,G,]2!ped! [C,,G,,G,][C,,G,,G,]!ped-up! | %37
!ped! [C,,G,,C,G,]2 [C,,G,,E,]2!ped-up!!ped! [A,,E,A,]2!ped-up!!ped! [G,,E,C]2!ped-up! | %38
!ped! !>![G,,,G,,] (3([^F,,,^F,,]/!ped-up!"^"[G,,,G,,]/[G,,,G,,]/ (3[G,,,G,,]/"^"[_A,,,_A,,]/[A,,,A,,]/ (3[A,,,A,,]/"^"[G,,,G,,]/[G,,,G,,]/)!ped!!>(! !arpeggio!.[G,,D,=F,C]2!ped-up! [G,,D,F,B,]!>)!!ped!!>![G,,,G,,] | %39
 !>![G,,D,F,B,] (3[^F,,,^F,,]/!ped-up![G,,,G,,]/[G,,,G,,]/ (3[^G,,,^G,,]/[A,,,A,,]/[A,,,A,,]/ (3[^A,,,^A,,]/[B,,,B,,]/[B,,,B,,]/ !>![C,,C,]4 | %40
!ped! !arpeggio![=F,,C,=F,C]!ped-up! (3[B,,,B,,]/[C,,C,]/[C,,C,]/ (3[C,,C,]/[^C,,^C,]/[C,,C,]/ (3[C,,C,]/[D,,D,]/[_E,,_E,]/!ped! !>![_E,G,=C_E] (3[=C,,=C,]/!ped-up![^C,,^C,]/[C,,C,]/ (3[C,,C,]/[D,,D,]/[D,,D,]/ (3[D,,D,]/[_E,,_E,]/!>![E,G,A,E]/ | %41
!ped! !>![D,A,D] (3[^C,,^C,]/!ped-up![D,,D,]/[D,,D,]/ (3[D,,D,]/[^D,,^D,]/[D,,D,]/ (3[D,,D,]/[E,,E,]/[E,,E,]/ (3[E,,E,]/[F,,F,]/[F,,F,]/ (3[F,,F,]/[^F,,^F,]/[F,,F,]/ (3[F,,F,]/[G,,G,]/[^G,,^G,]/ (3[G,,G,]/[A,,A,]/[^A,,^A,]/ | %42
!ped! !>![=G,,=D,B,] (3[^C,,^C,]/!ped-up![D,,D,]/[D,,D,]/ (3[D,,D,]/[^D,,^D,]/[D,,D,]/ (3[D,,D,]/[E,,E,]/[F,,F,]/!ped! !>![F,A,B,=DF] (3([=D,,=D,]/!ped-up![^D,,^D,]/[D,,D,]/ (3[D,,D,]/[E,,E,]/[E,,E,]/ (3[E,,E,]/[F,,F,]/!>![F,A,B,^D]/) | %43
!ped! !>!.[E,B,E] (3[^D,,^D,]/!ped-up![E,,E,]/[E,,E,]/ (3[E,,E,]/[F,,F,]/[F,,F,]/ (3[F,,F,]/[^F,,^F,]/[F,,F,]/ (3[^F,,^F,]/[G,,G,]/[G,,G,]/ (3[G,,G,]/[_A,,_A,]/[=A,,=A,]/ (3[^A,,^A,]/[B,,B,]/[C,C]/ (3[^C,^C]/[=D,=D]/[^D,^D]/ | %44
!ped! [=A,,G,=CE]({^F,,G,,)} TG,,3({F,,G,,-)}!ped-up!!ped! [G,,,G,,][K:treble] [G,D=FB]!ped-up!!ped![G,Ec][G,DGd]!ped-up! | %45
[K:bass]!ped! (3!arpeggio!!>![C,G,CG]/[K:treble] [Cc]/!ped-up![Dd]/ (3!>![Cc]/[G,G]/[A,A]/[K:bass] (3!>![G,G]/[E,E]/[F,F]/ (3!>![E,E]/[C,C]/[D,D]/ (3!>![C,C]/[G,,G,]/[A,,A,]/ (3!>![G,,G,]/[E,,E,]/[F,,F,]/ (3!>![E,,E,]/[C,,C,]/[D,,D,]/ (3!>![C,,C,]/!>![A,,,A,,]/!>![E,,,E,,]/ | %46
!ped! (3!>![G,,,G,,]/ [_E,_E]/[D,D]/!ped-up! (3[^C,^C]/[=C,=C]/[B,,B,]/ (3[_B,,_B,]/[A,,A,]/[^G,,^G,]/ (3[=G,,=G,]/[^F,,^F,]/[=F,,=F,]/!ped! (3[=E,,=E,]/[^D,,^D,]/[=D,,=D,]/ (3[^C,,^C,]/[=C,,=C,]/[=B,,,=B,,]/!ped-up!!ped! (3[_B,,,_B,,]/[A,,,A,,]/[_A,,,_A,,]/!ped-up!!ped! (3[G,,,G,,]/[^F,,,^F,,]/[=A,,,=A,,]/!ped-up! | %47
!ped! !arpeggio![G,,D,=F,B,][K:treble] (3[Ee]/!ped-up![Dd]/[A,A]/[K:bass] (3[G,G]/[E,E]/[D,D]/ (3[A,,A,]/[G,,G,]/[G,,,G,,]/ (3([C,,,C,,]/!p!!>(![G,,,G,,]/)"^accel."[G,,,G,,]/ (3([G,,,G,,]/[C,,C,]/)[C,,C,]/ (3([C,,C,]/[G,,G,]/)[G,,G,]/ (3([G,,G,]/[C,C]/)[C,C]/!>)! || %48
[K:Eb]!ped! (3([C,C]"_"[E,C][G,E] (3[E,C]"_"[G,E][E,C])!ped-up!!ped! (3([F,,F,][F,C][A,E] (3[F,C][A,E][F,C])!ped-up! | %49
!ped! (3[=B,,,=B,,][B,,G,][D,D] (3[B,,G,][D,D][B,,G,]!ped-up!!ped! (3[C,,C,][C,G,][E,E] (3[C,G,][E,E][C,G,]!ped-up! | %50
!ped! (3[A,,,A,,][C,A,][E,C] (3[C,A,][E,C][C,A,]!ped-up!!ped! (3[F,,,F,,][D,F,A,][F,A,C] (3[D,F,A,][F,A,C][D,F,A,]!ped-up! | %51
!ped! (3[G,,,G,,][G,,D,][D,G,]!ped-up!!ped! (3[G,,D,][D,G,][G,,D,]!ped-up!!ped! (3[C,,C,][G,,C,][C,G,] (3[G,,C,][C,G,][G,,C,]!ped-up! | %52
!ped! (3[E,,,E,,][E,B,][G,E] (3[E,B,][G,E][E,B,]!ped-up!!ped! (3[A,,,A,,][F,C][A,E] (3[F,C][A,E][F,C]!ped-up! | %53
!ped! (3[B,,,B,,][B,,A,][F,D] (3[B,,A,][F,D][=B,,,=B,,]!ped-up!!ped! (3[C,,C,][C,G,][E,E] (3[C,G,][E,E][C,G,]!ped-up! | %54
!ped! (3[D,,D,][B,,G,][D,B,] (3[B,,G,][D,B,][D,,D,]!ped-up!!ped! (3[D,,,D,,][D,=A,][A,C] (3[D,A,][A,C][D,A,]!ped-up! | %55
!ped! (3[G,,,G,,][G,,D,][D,G,] (3[G,,D,][D,G,]D,,!ped-up!!ped! (3[G,,,G,,][G,,D,][D,G,] (3[G,,D,][D,G,][G,,,G,,]!ped-up! | %56
!ped! (3[_G,,,_G,,][G,,E,][C,A,] (3[G,,E,][C,A,][G,,,G,,]!ped-up!!ped! (3[F,,,F,,][F,,_D,][D,A,] (3[F,,D,][D,A,][F,,,F,,]!ped-up! | %57
!ped! (3[C,,C,][C,A,][E,E] (3[C,A,][E,E][C,,C,]!ped-up!!ped! (3[_D,,_D,][D,A,][F,_D] (3[D,A,][F,D][C,,C,]!ped-up! | %58
!ped! (3[=B,,,=B,,][B,,G,][=D,=D] (3[B,,G,][D,G,][B,,,B,,]!ped-up!!ped! (3[C,,C,][C,G,][E,C] (3[C,G,][E,E][C,,C,]!ped-up! | %59
!ped! (3[D,,D,][D,G,][G,D] (3[D,G,][G,D][D,,D,]!ped-up!!ped! (3[E,,E,][E,C][G,E] (3[E,C][G,E][E,,E,]!ped-up! | %60
!ped! (3[F,,F,][F,=B,][B,F] (3[F,B,][B,F][F,,F,]!ped-up!!ped! (3[E,,E,][C,G,][G,C] (3[C,G,][G,C][C,,C,]!ped-up! | %61
!ped! (3[=B,,,=B,,][B,,G,][D,D] (3[B,,G,][D,D][B,,,B,,]!ped-up!!ped! (3[C,,C,][C,G,][E,C] (3[C,G,][E,G,E][C,,C,]!ped-up! | %62
!ped! (3[F,,,F,,][F,A,C][A,CE] (3[F,A,C][A,CE][F,,,F,,]!ped-up!!ped! (3[A,,,A,,][F,A,C][A,CE] (3[F,A,C][A,CE][A,,,A,,]!ped-up! | %63
!ped! (3[B,,,B,,][B,,A,][F,D] (3[B,,A,][F,D][B,,,B,,]!ped-up!!ped! (3[=B,,,=B,,][B,,G,][D,D] (3[B,,G,][D,D][B,,,B,,]!ped-up! | %64
!ped! (3[C,,C,][G,_B,C][B,C=E] (3[G,B,C][B,CE][C,,C,]!ped-up!!ped! (3[F,,F,][F,C][A,CE] (3[F,A,C][A,CF][F,,F,]!ped-up! | %65
!ped! (3[B,,,B,,][F,A,C][A,C_E] (3[F,A,C][A,B,D][B,,,B,,]!ped-up!!ped! (3[E,,E,][E,G,B,][G,B,D] (3[E,G,B,][G,B,D][E,,E,]!ped-up! | %66
!ped! (3[A,,,A,,][C,E,A,][E,A,C] (3[C,E,A,][E,A,C][A,,,A,,]!ped-up!!ped! (3[D,,D,][D,F,A,][F,A,C] (3[D,F,A,][F,A,C][D,,D,]!ped-up! | %67
!ped! (3[G,,,G,,][D,F,A,][F,A,C] (3[D,G,][G,=B,][G,,,G,,]!ped-up!!ped! (3[A,,,A,,][C,A,][E,A,C] (3[C,A,][E,A,C][A,,,A,,]!ped-up! | %68
!ped! (3[E,,,E,,]E,[G,E] (3[E,G,C][G,CG][E,,,E,,]!ped-up!!ped! (3[F,,,F,,][F,CD][CDF] (3[F,CD][CDA][F,,,F,,]!ped-up! | %69
!ped! (3[G,,,G,,][G,C][CG] (3[G,C][CG][G,,,G,,]!ped-up!!ped! (3[A,,,A,,][F,C][CF] (3[F,CD][CDA][A,,,A,,]!ped-up! | %70
!ped! (3[G,,,G,,][C,G,][G,C] (3[C,G,][G,C][C,G,]!ped-up!!ped! (3[G,,,G,,][G,,D,][D,G,] (3[G,,D,][D,G,][G,,,G,,]!ped-up! | %71
!ped! (3[_G,,,_G,,][G,,E,][E,A,] (3[G,,E,][E,A,][G,,,G,,]!ped-up!!ped! (3[F,,,F,,][F,,_D,][D,A,] (3[F,,D,][D,A,][F,,,F,,]!ped-up! | %72
!ped! (3([=G,,,=G,,][G,,=D,][D,F,] (3[F,A,][F,A,][F,A,]) (3([G,,,G,,][G,,D,][D,F,]!ped-up!!ped! (3[F,=B,][F,B,][F,B,])!ped-up! | %73
!ped! (3(C,,,G,,[G,,E,] (3[E,G,][E,G,]).G,,, (3.C,,(G,,[G,,E,] (3[E,G,][E,G,]).G,,,!ped-up! | %74
!ped! C,,,2!ped-up! z2 z4 | z4!ped! [C,,C,]2 [C,,C,]2 | !fermata![C,,G,,C,]8!ped-up! |] %77
V:3
 x8 | x8 | x8 | x8 | x8 | x8 | x8 | x8 | x8 | x8 | x8 | x8 | x8 | x8 | x8 | x8 | x8 | x8 | x8 | %19
 x8 | x8 | x8 | x8 | z2!>(![I:staff +1] ([G,_B,]2 [^F,=A,]2 [=F,_A,]2)!>)! || %24
[K:C] !stemless![E,G,]4 !stemless![F,G,B,]2 !stemless![F,G,B,]3/2 !stemless![F,G,B,]/ | %25
 E,2 x4 G,2 | G,4 A,2 x2 | x6 [G,B,]2 | x8 | x8 | x8 | x8 | x8 | x8 | x8 | %35
 x6[I:staff -1] (3(=d"^"f3/2e/) | x8 | x8 | x8 | x8 | x8 | x8 | x8 | x8 | x8 | %45
 x/3!8va(! x8/3!8va)! x5 | x8 | x!8va(! x2!8va)! x5 || %48
[K:Eb] (3z"^" [Gce][Gce] (3[Gce][Gce][Gce] (3[Ace][Ace][Ace] (3[Ace][Ace][Ace] | %49
 (6:4:5z x !^!g2 x !^!d- x4 | (3A[EA][EA] (3[EA][EA][EA] (3[DA][DA][DA] (3[DA][DA][DA] | %51
 (3[CDF][CDF][CDF] x3/2[I:staff +1] !stemless![F,G,]/ (3:2:4!stemless![E,G,]/ !stemless![E,G,]/[I:staff -1] x x x2 | %52
[I:staff +1] (3[E,G,_B,][I:staff -1] [Gce][Gce] (3[Gce][Gce][Gce] (3[Ace][Ace][Ace] (3[Ace][Ace][Ace] | %53
 (6:4:5a x !^!g2 x !^!f- x4 | (3[DG]DD x2 (3[EG][EG][EG] (3[E^F][EF][CE] | %55
 (3[B,D][B,D][B,D] (3[B,D][B,D][B,D]"_cresc." (3[B,D][=B,D][B,D] (3[B,D][B,D][B,D] | %56
 (3[=B,D][CE][CE] (3[CE][CE][CE] (3[A,_D][A,D][DA] (3[FA_d][FAd][_Bd] | %57
 (3[_GAe][GAe][GAe] (3[GAe][GAe][GAe] (3[FA_d][FAd][FAd] (3[FAd][FAd][FAd] | %58
 (3[F=G=d][FGd][FGd] (3[DF][DF][DF] x4 | %59
 (3[FG=B][FGB][FGB] (3:2:6[FGB]/[FGB]/[FGB]/[FGB]/[FGB]/[GB]/ (3[G=c][Gc][Gc] (3[Gc][Gc][Gc] | %60
 (3[DA][DA][DA] (3[DA][DA][DA] (3[EG][EG][EG] (3[EG][EG][EG] | %61
 (3[FG][FG][FG] (3[FG][FG][FG] (3[EG][EG][EGc] (3[Gc][Gce][Gce] | %62
 (3[Ace][Ace][Ace] (3[Ace][Ace][FA] (3[FAc][FAc][FAc] x2 | %63
 (3[FAB][FAB][FAB] (3[FAB][FB][FA] (3[FG][FG][FG] (3[FG]{/_B}[FA][FG] | %64
 (3[=EG_Bc=e][EGBce][GBce] (3[Bce][Bce][Bce] (3[Ace][Ace][Ace] (3[Acf][Acf][Acf] | %65
 (3[Ac_e][Ace][Ace] (3[Ace][ABd][ABd] x4 | %66
 (3[GA][GA][GA] (3[GA][GA][GA] (3[FA][FA][FA] (3[FAc][FAc][FAc] | %67
 (3[FAc][FAc][FAc] (3[FG=B][FGB][FGB] x4 | (3[G,C][G,C]C (3[cg][cg][cg] x4 | x8 | %70
 (3[_EGc][EGc][EGc]!mp!!<(! (3[EGc][EGc][EG]!<)! (3[CD][CD][CD]!mp!!<(! (3[=B,D][B,D]B,!<)! | %71
[I:staff +1] [E,A,] x7 | x8 | x8 | x8 | x4 !stemless![E,G,]2 !stemless![E,G,]2 | %76
 !stemless![E,G,]8 |] %77
V:4
 x8 | x8 | x8 | x8 | x8 | x8 | x8 | x8 | x8 | x8 | x8 | x8 | x8 | x8 | x8 | x8 | x8 | x8 | x8 | %19
 x8 | x8 | x8 | x8 | x8 ||[K:C] x8 | x8 | x8 | x8 | x8 | x8 | x8 | x8 | x8 | x8 | x8 | x8 | x8 | %37
 x8 | x8 | x8 | x8 | x8 | x8 | x8 | x8 | x/3!8va(! x8/3!8va)! x5 | x8 | x!8va(! x2!8va)! x5 || %48
[K:Eb] x8 | x8 | x8 | x8 | x8 | x8 | x8 | x8 | x8 | x8 | x8 | x8 | x8 | x8 | x8 | x8 | x8 | x8 | %66
 x8 | x8 | x8 | x8 | %70
 x2 (3:2:5x x (3.!^![EGc]/"_".!^![EGd]/!f!.!^![EGc]/ x2 (3:2:5x x (3.!^![=B,DG]/"_".!^![B,DA]/.!^![B,DG]/ | %71
 x8 | x8 | x8 | x8 | x8 | x8 |] %77

